Yaru++/mimetypes/16/text-x-csharp.svg

<svg id="svg4" height="16" width="16" xmlns="http://www.w3.org/2000/svg">
  <path id="path965" d="m3.8333333 3.6666664s-3.3333333 0-3.3333333 3.3333337v1.6666666c0 3.3333333 3.3333333 3.3333333 3.3333333 3.3333333h1.6666666v-1.666667h-1.6666666s-1.6666667 0-1.6666667-1.6666663v-1.6666666c0-1.6666666 1.6666667-1.6666666 1.6666667-1.6666666h1.6666666v-1.6666671zm4.9999999 0v1.6666671h-1.6666667v1.6666666h1.6666667v1.6666666h-1.6666667v1.6666663h1.6666667v1.666667h1.6666668v-1.666667h1.666667v1.666667h1.666666v-1.666667h1.666667v-1.6666663h-1.666667v-1.6666666h1.666667v-1.6666666h-1.666667v-1.6666671h-1.666666v1.6666671h-1.666667v-1.6666671zm1.6666668 3.3333337h1.666667v1.6666666h-1.666667z" fill="#808080"/>
</svg>

<?xml version="1.0" encoding="UTF-8" standalone="no"?>
<svg
   xmlns:dc="http://purl.org/dc/elements/1.1/"
   xmlns:cc="http://creativecommons.org/ns#"
   xmlns:rdf="http://www.w3.org/1999/02/22-rdf-syntax-ns#"
   xmlns:svg="http://www.w3.org/2000/svg"
   xmlns="http://www.w3.org/2000/svg"
   xmlns:sodipodi="http://sodipodi.sourceforge.net/DTD/sodipodi-0.dtd"
   xmlns:inkscape="http://www.inkscape.org/namespaces/inkscape"
   width="16"
   height="16"
   version="1.1"
   id="svg4"
   sodipodi:docname="text-x-csharp.svg"
   inkscape:version="0.92.4 (5da689c313, 2019-01-14)">
  <metadata
     id="metadata10">
    <rdf:RDF>
      <cc:Work
         rdf:about="">
        <dc:format>image/svg+xml</dc:format>
        <dc:type
           rdf:resource="http://purl.org/dc/dcmitype/StillImage" />
      </cc:Work>
    </rdf:RDF>
  </metadata>
  <defs
     id="defs8">
    <clipPath
       clipPathUnits="userSpaceOnUse"
       id="clipPath983">
      <path
         sodipodi:nodetypes="scccssscsss"
         inkscape:connector-curvature="0"
         id="path985"
         d="m 325.09646,237 c -2.80769,0 -3.10979,0.28839 -3.09603,3.10176 V 244 v 3.89824 c -0.0138,2.81337 0.28834,3.10176 3.09603,3.10176 h 5.8075 C 333.71166,251 334,250.71165 334,247.89824 V 244 240.10176 C 334,237.28836 333.71165,237 330.90396,237 Z"
         style="color:#000000;display:inline;overflow:visible;visibility:visible;opacity:1;fill:#46a926;fill-opacity:1;fill-rule:nonzero;stroke:none;stroke-width:2;stroke-miterlimit:4;stroke-dasharray:none;stroke-opacity:1;marker:none;enable-background:accumulate" />
    </clipPath>
  </defs>
  <sodipodi:namedview
     pagecolor="#ffffff"
     bordercolor="#666666"
     borderopacity="1"
     objecttolerance="10"
     gridtolerance="10"
     guidetolerance="10"
     inkscape:pageopacity="0"
     inkscape:pageshadow="2"
     inkscape:window-width="856"
     inkscape:window-height="480"
     id="namedview6"
     showgrid="false"
     inkscape:zoom="14.75"
     inkscape:cx="8"
     inkscape:cy="8"
     inkscape:window-x="0"
     inkscape:window-y="27"
     inkscape:window-maximized="0"
     inkscape:current-layer="svg4" />
  <path
     style="color:#000000;font-style:normal;font-variant:normal;font-weight:normal;font-stretch:normal;font-size:medium;line-height:normal;font-family:Sans;-inkscape-font-specification:Sans;text-indent:0;text-align:start;text-decoration:none;text-decoration-line:none;letter-spacing:normal;word-spacing:normal;text-transform:none;writing-mode:lr-tb;direction:ltr;baseline-shift:baseline;text-anchor:start;display:inline;overflow:visible;visibility:visible;fill:#808080;fill-opacity:1;stroke:none;stroke-width:3.33333302;marker:none;enable-background:accumulate"
     d="m 3.8333333,3.6666664 c 0,0 -3.3333333,0 -3.3333333,3.3333337 V 8.6666667 C 0.5,12 3.8333333,12 3.8333333,12 H 5.4999999 V 10.333333 H 3.8333333 c 0,0 -1.6666667,0 -1.6666667,-1.6666663 V 7.0000001 c 0,-1.6666666 1.6666667,-1.6666666 1.6666667,-1.6666666 H 5.4999999 V 3.6666664 Z m 4.9999999,0 V 5.3333335 H 7.1666665 V 7.0000001 H 8.8333332 V 8.6666667 H 7.1666665 V 10.333333 H 8.8333332 V 12 H 10.5 v -1.666667 h 1.666667 V 12 h 1.666666 V 10.333333 H 15.5 V 8.6666667 H 13.833333 V 7.0000001 H 15.5 V 5.3333335 H 13.833333 V 3.6666664 H 12.166667 V 5.3333335 H 10.5 V 3.6666664 Z M 10.5,7.0000001 h 1.666667 V 8.6666667 H 10.5 Z"
     id="path965"
     inkscape:connector-curvature="0"
     sodipodi:nodetypes="cssccccsscccccccccccccccccccccccccccccccccccccc" />
</svg>
